modules/hawcons-filled/icons/icon-42-moonset.svg

<?xml version="1.0" encoding="UTF-8" standalone="no"?>
<svg width="32px" height="32px" viewBox="0 0 32 32" version="1.1" xmlns="http://www.w3.org/2000/svg" xmlns:xlink="http://www.w3.org/1999/xlink" xmlns:sketch="http://www.bohemiancoding.com/sketch/ns">
    <!-- Generator: Sketch 3.0.3 (7891) - http://www.bohemiancoding.com/sketch -->
    <title>icon 42 moonset</title>
    <desc>Created with Sketch.</desc>
    <defs></defs>
    <g id="Page-1" stroke="none" stroke-width="1" fill="none" fill-rule="evenodd" sketch:type="MSPage">
        <g id="icon-42-moonset" sketch:type="MSArtboardGroup" fill="#929292">
            <path d="M20.3074361,14.8310925 C19.7103758,17.222796 17.5475756,18.9946037 14.9709473,18.9946037 C11.933381,18.9946037 9.47094727,16.5321699 9.47094727,13.4946037 C9.47094727,10.9179753 11.242755,8.75517509 13.6344585,8.15811484 C13.9858436,8.07039573 14.3506093,8.01647312 14.7251024,8 C14.5604882,8.46764261 14.4709473,8.97066642 14.4709473,9.49460366 C14.4709473,11.9798852 16.4856658,13.9946037 18.9709473,13.9946037 C19.4948845,13.9946037 19.9979083,13.9050627 20.4655509,13.7404486 C20.4490778,14.1149417 20.3951552,14.4797073 20.3074361,14.8310925 L20.3074361,14.8310925 Z M6.5082041,21.5 C6.22753073,21.5 6,21.2680664 6,21 C6,20.7238576 6.22661515,20.5 6.5082041,20.5 L12.5833333,20.5 L13.75,21.5 L15.5,23 L17.25,21.5 L18.4166667,20.5 L24.4917959,20.5 C24.7724693,20.5 25,20.7319336 25,21 C25,21.2761424 24.7733849,21.5 24.4917959,21.5 L19,21.5 L15.5,24.5 L12,21.5 L6.5082041,21.5 L6.5082041,21.5 Z" id="moonset" sketch:type="MSShapeGroup"></path>
        </g>
    </g>
</svg>

<svg width="32" height="32" viewBox="0 0 32 32" xmlns="http://www.w3.org/2000/svg"><path d="M20.307 14.831A5.5 5.5 0 1 1 14.725 8a4.5 4.5 0 0 0 5.74 5.74c-.016.375-.07.74-.158 1.091zM6.508 21.5A.51.51 0 0 1 6 21c0-.276.227-.5.508-.5h6.075l1.167 1L15.5 23l1.75-1.5 1.167-1h6.075A.51.51 0 0 1 25 21c0 .276-.227.5-.508.5H19l-3.5 3-3.5-3H6.508z" fill="#929292" fill-rule="evenodd"/></svg>
